X:1
T:Title
%%score { ( 1 3 4 ) | ( 2 5 ) }
L:1/8
M:4/4
K:F
V:1 treble nm="Grand Piano"
V:3 treble 
V:4 treble 
V:2 bass 
V:5 bass 
V:1
 z4 z2[Q:1/4=108] A>G | F2 F2 F>C F>A | c>c f>d c2 B>A |[M:3/4] G6 |[M:1/4] A>G |[M:4/4] F6 z2 | %6
 F2 F2 F>C F>A |[M:3/4] c>c f>d c2 |[M:1/4] c>d |[M:4/4] e6 z2 |[M:3/4] c6 |[M:1/4] C>C | %12
[M:4/4] [CF]6 z2 | c6 z2 | [EG]6 B>B |[M:3/4] [FA]4 F2 |[M:1/4] C>C |[M:4/4] F6 z2 | c6 z2 | %19
 e4 z4 | [CEc]6 c>c | [Ed]2 [Ec]4 c>c | d2 c4 c>c | f3 d [FB]2 d2 | c6 F>G | A2 c4 A>F | %26
[M:5/4] B2 f6 A>B |[M:4/4] c3 d A2 [EG]2 |[M:3/4] F6 |] %29
V:2
 z4 z2 [F,F]>[F,B,E] | [F,A,C]2 [F,A,C]2 [F,A,C]>[F,A,] [F,A,C]>[F,CF] | %2
 [F,A,F]>[F,A,F] [F,A,F]>[F,B,F] [F,A,F]2 z2 |[M:3/4] [C,B,]2 [C,B,]2 [C,B,]2 |[M:1/4] z2 | %5
[M:4/4] [F,A,C]2 [F,A,]2 [F,A,]2 [F,CF]>[F,B,E] | %6
 [F,A,C]2 [F,A,C]2 [F,A,C]>[F,A,] [F,A,C]>[K:treble][F,CF] | %7
[M:3/4] [F,A,F]>[F,A,F] [F,A,F]>[F,B,F] [F,A,F]2 |[M:1/4] z2 |[M:4/4] [G,CG]2 [G,C]2 [G,C]2 z2 | %10
[M:3/4][K:bass] [C,G,]2 [C,A,]2 [C,B,]2 |[M:1/4] F,>F, |[M:4/4] z4 z2 C2 | F2- [F,F-]2 [F,F]2 F>F | %14
 C>[K:bass]B, G,>E, C,2 D>E |[M:3/4] C>B, A,>G, F,2 |[M:1/4] [F,A,]>[F,A,] | %17
[M:4/4] C2- [F,C-]2 [F,C]2 C>[K:treble]F | F2- [F,F-]2 [F,F]2 A>_A | %19
 G-[G,G-][G,G][A,EG] [G,DF]2 [G,=B,F]2 | C,6 E>E | [C,B,]2 [C,B,]4[K:treble] E>E | %22
 [F,A,F]2 [F,A,F]4 [F,A,F]>[F,A,F] | [B,DF]3[K:bass] [F,B,F] [D,B,]2 [F,B,F]2 | %24
 [F,A,F]6 [F,A,]>[F,B,F] | [F,CF]2 [F,_EF]4 [F,EF]>[F,E] | %26
[M:5/4][K:treble] [F,DF]2 [F,^CF]6 [F,=CF]>[F,B,F] | %27
[M:4/4] [F,A,F]3 [F,B,F] [CF]2[K:bass] [C,B,]2 |[M:3/4] [F,A,]6 |] %29
V:3
 x8 | x8 | x8 |[M:3/4] E2 E2 E2 |[M:1/4] x2 |[M:4/4] z2 C2 C2 A>G | x8 |[M:3/4] x6 |[M:1/4] x2 | %9
[M:4/4] z2 G2 G2 d>G |[M:3/4] E2 F2 E2 |[M:1/4] x2 |[M:4/4] A,2 A,2 z z/ C/ F>A | z2 A,2 A,2 A>A | %14
 x8 |[M:3/4] x6 |[M:1/4] x2 |[M:4/4] z2 A,2 z z/ C/ F>A | z2 A,2 A,2 c>d | z CCc G2 d2 | x8 | x8 | %22
 x8 | x8 | x8 | x8 |[M:5/4] x10 |[M:4/4] x8 |[M:3/4] x6 |] %29
V:4
 x8 | x8 | x8 |[M:3/4] x6 |[M:1/4] x2 |[M:4/4] x8 | x8 |[M:3/4] x6 |[M:1/4] x2 |[M:4/4] x8 | %10
[M:3/4] x6 |[M:1/4] x2 |[M:4/4] z4 A,2 z2 | x8 | x8 |[M:3/4] x6 |[M:1/4] x2 |[M:4/4] z4 A,2 z2 | %18
 x8 | x8 | x8 | x8 | x8 | x8 | x8 | x8 |[M:5/4] x10 |[M:4/4] x8 |[M:3/4] x6 |] %29
V:5
 x8 | x8 | x8 |[M:3/4] x6 |[M:1/4] x2 |[M:4/4] x8 | x15/2[K:treble] x/ |[M:3/4] x6 |[M:1/4] x2 | %9
[M:4/4] x8 |[M:3/4][K:bass] x6 |[M:1/4] x2 |[M:4/4] F,2 F,2 F,2 [F,A,]->[F,A,F] | [F,A,]2 z2 z4 | %14
 x3/2[K:bass] x13/2 |[M:3/4] x6 |[M:1/4] x2 |[M:4/4] [F,A,]2 z2 z2 [F,A,]2[K:treble] | %18
 [F,A,]2 z2 z4 | .[G,C]2 z2 z4 | x8 | x6[K:treble] x2 | x8 | x3[K:bass] x5 | x8 | x8 | %26
[M:5/4][K:treble] x10 |[M:4/4] x6[K:bass] x2 |[M:3/4] x6 |] %29

